archdroid-icon-theme/Archdroid-KellyGreen/status/scalable/user-idle-panel.svg

<?xml version="1.0" encoding="UTF-8" standalone="no"?>
<!-- Created with Inkscape (http://www.inkscape.org/) -->

<svg
   xmlns:dc="http://purl.org/dc/elements/1.1/"
   xmlns:cc="http://creativecommons.org/ns#"
   xmlns:rdf="http://www.w3.org/1999/02/22-rdf-syntax-ns#"
   xmlns:svg="http://www.w3.org/2000/svg"
   xmlns="http://www.w3.org/2000/svg"
   xmlns:sodipodi="http://sodipodi.sourceforge.net/DTD/sodipodi-0.dtd"
   xmlns:inkscape="http://www.inkscape.org/namespaces/inkscape"
   version="1.0"
   width="24"
   height="24"
   id="svg2816"
   style="display:inline"
   inkscape:version="0.91 r13725"
   sodipodi:docname="user-idle-panel.svg">
  <metadata
     id="metadata10">
    <rdf:RDF>
      <cc:Work
         rdf:about="">
        <dc:format>image/svg+xml</dc:format>
        <dc:type
           rdf:resource="http://purl.org/dc/dcmitype/StillImage" />
        <dc:title />
      </cc:Work>
    </rdf:RDF>
  </metadata>
  <sodipodi:namedview
     pagecolor="#ffffff"
     bordercolor="#666666"
     borderopacity="1"
     objecttolerance="10"
     gridtolerance="10"
     guidetolerance="10"
     inkscape:pageopacity="0"
     inkscape:pageshadow="2"
     inkscape:window-width="1366"
     inkscape:window-height="713"
     id="namedview8"
     showgrid="false"
     inkscape:zoom="27.6706318984375"
     inkscape:cx="10.60924288938308"
     inkscape:cy="5.217696199086986"
     inkscape:window-x="0"
     inkscape:window-y="30"
     inkscape:window-maximized="1"
     inkscape:current-layer="svg2816" />
  <defs
     id="defs2818" />
  <path
     d="M 11.5,5 C 7.36,5 4.0000001,8.3599999 4,12.5 c 0,4.14 3.3600001,7.5 7.5,7.5 1.964788,0 3.756106,-0.76222 5.09375,-2 L 22,18 18.65625,14.65625 C 18.864192,13.968633 19,13.255184 19,12.5 19,8.36 15.64,5.0000001 11.5,5 z m 0,3 C 13.984,8 16,10.016 16,12.5 16,14.984 13.984,17 11.5,17 9.016,17 7,14.984 7,12.5 7,10.016 9.016,8 11.5,8 z"
     id="path2396"
     style="fill:#00C853;fill-opacity:1;fill-rule:evenodd;stroke:none;stroke-width:1;marker:none;visibility:visible;display:inline;overflow:visible;enable-background:accumulate"
     inkscape:connector-curvature="0" />
  <path
     d="m 13.262048,12.49928 -1.762048,0 0,-2.499999"
     id="path2817"
     style="fill:none;stroke:#00C853;stroke-width:1px;stroke-linecap:round;stroke-linejoin:round;stroke-opacity:1;display:inline"
     inkscape:connector-curvature="0" />
  <path
     d="M 15.75,12.49928 C 15.750399,14.846772 13.847491,16.75 11.499999,16.75 9.152508,16.75 7.249602,14.846772 7.25,12.49928 7.249602,10.151788 9.152508,8.248559 11.499999,8.248559 c 2.347492,0 4.2504,1.903229 4.250001,4.250721 z"
     id="path3208"
     style="opacity:0.3;fill:none;stroke:#ffffff;stroke-width:0.5;stroke-linecap:round;stroke-linejoin:miter;stroke-miterlimit:4;stroke-opacity:1;stroke-dasharray:none;stroke-dashoffset:0;marker:none;visibility:visible;display:inline;overflow:visible;enable-background:accumulate"
     inkscape:connector-curvature="0" />
</svg>

<svg xmlns="http://www.w3.org/2000/svg" viewBox="0 0 24 24"><path d="m11.5 5c-4.14 0-7.5 3.36-7.5 7.5 0 4.14 3.36 7.5 7.5 7.5 1.965 0 3.756-.762 5.094-2h5.406l-3.344-3.344c.208-.688.344-1.401.344-2.156 0-4.14-3.36-7.5-7.5-7.5m0 3c2.484 0 4.5 2.02 4.5 4.5 0 2.484-2.02 4.5-4.5 4.5-2.484 0-4.5-2.02-4.5-4.5 0-2.484 2.02-4.5 4.5-4.5" fill="#00C853" fill-rule="evenodd"/><g fill="none" stroke-linecap="round"><path d="m13.262 12.499h-1.762v-2.5" stroke="#00C853" stroke-linejoin="round"/><path d="m15.75 12.499c0 2.347-1.903 4.251-4.25 4.251-2.347 0-4.25-1.903-4.25-4.251 0-2.347 1.903-4.251 4.25-4.251 2.347 0 4.25 1.903 4.25 4.251z" opacity=".3" stroke="#fff" stroke-width=".5"/></g></svg>
